X:1
T:Title
%%score ( 1 2 ) { 3 | 4 }
L:1/8
Q:1/4=86
M:4/4
K:Bb
V:1 treble nm="Drawbar Organ, Soprano"
V:2 treble 
V:3 bass nm="Church Organ, Bass"
V:4 bass 
V:1
 z2 z B- B4 | z2 z d- d4 | z8 | z2 z c- c4 | z2 z B- B4 | z2 z d- d4 | z2 z B- B4- | B z z B- B4- | %8
 B z z2 z4 | [FB][FB][FB][FB] [FB][FB][Bd][Bd] | z8 | z2 z c- c4- | c z z2 z4 | %13
 [FB][FB][FB][FB] [FB][FB][Bd][Bd] | [Bd][Bd][Bd][Af] [Bd][Ac][GB][Bd]- | [Bd] [Fc]2 F F=EEF- | %16
 F4 z4 |] %17
V:2
 FG .B2 DDDD | [DB][DB][Ec]F FFGF | [Fd][Fd][Ec][DB]- [DB]4- | [DB] [=EB]2 F AAGF | FF .G2 DDDD | %5
 [DF][DG][DB]F FFFF | [Fd][Ff][Fd]G GGGF- | F c2 F F=EEF- | F [DF]2 [DF] [DF][DF][EG][FB] | x8 | %10
 [Bd][Bd][Fd][Fd] [Fc][FB][FB][=EB]- | [EB] [=EG]2 F FEEF- | F [DF]2 [DF] [DF][DF][EG][FB] | x8 | %14
 x8 | z2 z B- B4- | B4 z4 |] %17
V:3
 z4 F,F,F,F, | F,F,F,B, B,B,B,B, | z4 B,B,B,B,- | B, G,2 A, CCB,A, | z4 F,F,F,F, | %5
 B,B,F,B, B,B,B,B, | B,[K:treble]DB,D DEED- | D E2 D D_DD=D- | D[K:bass] B,2 B, B,B,B,[K:treble]D | %9
 DDDD DDFF | FF[K:bass]B,B, A,B,B,C- | C B,2 A, A,G,G,A,- | A, B,2 B, B,B,B,[K:treble]D | %13
 DDDD DDFF | FFB,C DEDF- | F E2 D D_DD=D- | D4 z4 |] %17
V:4
 z4 B,,B,,B,,B,, | B,,B,,B,,B,, B,,B,,B,,B,, | z4 G,G,G,G,- | G, C,2 F, F,F,F,F, | %4
 z4 B,,B,,B,,B,, | B,,B,,B,,B,, B,,D, .F,2 | z B, z G, G,E,E,F,- | F, F,2 B,,- B,,4- | %8
 B,, B,,2 B,, B,,B,,B,,B,, | B,,B,,B,B, B,B,B,B, | B,B,B,,B,, C,D,D,C,- | C, C,2 F, F,C,C,F,- | %12
 F, B,,2 B,, B,,B,,B,,B,, | B,,B,,B,B, B,B,B,B, | B,B,G,F, F,F,G,F,- | F, F,2 B,,- B,,4- | %16
 B,,4 z4 |] %17

